!! 00000] TT[WS
!!!OTL: Zhangang fangshao
!!!ARE: Asia, China, Shanxi Yishan
!! Ethnic Group: Han
!! WI, 286
!!!SCT: J0345
!!!YEM: Copyright 1995, estate of Helmut Schaffrath.
**kern
*ICvox
*Ivox
*M2/4
*k[b-]
*F:
{4r
8cc
8cc
=1
8a
8cc
8ff
16dd
16cc
=2
8a
16cc
16ff
8dd
16cc
16a
=3
8.g
16a
4g}
=4
{8cc
8a
8ff
16dd
16cc
=5
8a
8cc
8f
8d
=6
8a
16a
16cc
16g
8f
16d
=7
8.c
16f
4c}
==
!!!AGN: Xiaodiao. Xinminge, Xuanchuan
!! Neue Text. Politische Liede
!!!ONB: ESAC (Essen Associative Code) Database: CHINA
!!!AMT: simple duple
!!!AIN: vox
!!!EED: Helmut Schaffrath
!!!EEV: 1.0
*-
